!!!COM: Monteverdi, Claudio
!!!CDT: 1567/05/15/-1643/11/29/
!!!OTL: Stabat Virgo Maria 
!!!OTL2: Era l'anima mia
!!!ONM: No. 5
!!!SMS: Musica tolta da i madrigali di Claudio Monteverdi, e d'altri autori, e fatta spirituale
!!!PPR: A. Coppini, ed.
!!!PPP: Milan
!!!PDT: 1607
!!!URL: http://www.jpj.dk/coppini.htm
!!!AIN: contrafacta
**kern	**kern	**kern	**kern	**kern
!basso	!tenore	!quinto	!alto	!canto
*staff5	*staff4	*staff3	*staff2	*staff1
*Ivox	*Ivox	*Ivox	*Ivox	*Ivox
*clefF4	*clefGv2	*clefGv2	*clefG2	*clefG2
*k[b-]	*k[b-]	*k[b-]	*k[b-]	*k[b-]
*M4/4	*M4/4	*M4/4	*M4/4	*M4/4
*MM120	*MM120	*MM120	*MM120	*MM120
=1-	=1-	=1-	=1-	=1-
2r	2r	2.A/	1r	1r
[2D\	[2F/	.	.	.
.	.	4A/	.	.
=2	=2	=2	=2	=2
4D\]	4F/]	4A/	1r	1r
4D\	4F/	8A/	.	.
.	.	8A/	.	.
4D\	4F/	2A/	.	.
8D\	8F/	.	.	.
8D\	8F/	.	.	.
=3	=3	=3	=3	=3
2D\	2F/	2.A/	1r	1r
[2D\	4F/	.	.	.
.	4F/	4A/	.	.
=4	=4	=4	=4	=4
4D\]	4.F/	4.A/	1r	1r
4D\	.	.	.	.
.	8F/	8A/	.	.
4.D\	[2F/	2A/	.	.
8C/	.	.	.	.
=5	=5	=5	=5	=5
2BB-/	4F/]	4A/	1r	1r
.	4D/	4G/	.	.
2BB-/	2D/	2G/	.	.
=6	=6	=6	=6	=6
[1AA	4E/	4A/	1r	1r
.	4F/	4A/	.	.
.	4E/	4G/	.	.
.	4F/	4A/	.	.
=7	=7	=7	=7	=7
1AA_	4D/	4F#/	1r	1r
.	4E/	4G/	.	.
.	4C#/	4E/	.	.
.	[4D/	[4Fn/	.	.
=8	=8	=8	=8	=8
1AA]	8D/]	8F/]	1r	1r
.	8D/	8F/	.	.
.	4D/	4F/	.	.
.	2C#/	2E/	.	.
=9	=9	=9	=9	=9
[1D	4D/	4D/	1r	1r
.	4B-\	4d\	.	.
.	4A/	4c\	.	.
.	4B-\	4d\	.	.
=10	=10	=10	=10	=10
1D]	4G#/	4Bn\	1r	1r
.	4A/	4c\	.	.
.	4F#/	4A/	.	.
.	[4Gn/	[4B-\	.	.
=11	=11	=11	=11	=11
1r	8G/]	8B-\]	1r	1r
.	8G/	8B-\	.	.
.	4G/	4B-\	.	.
.	2F#/	2A/	.	.
=12	=12	=12	=12	=12
1r	1G	1G	1r	1r
=13	=13	=13	=13	=13
4r	1r	4r	4r	4r
4G\	.	4g\	4b-\	4dd\
4.G\	.	4.g\	4.b-\	4.dd\
8F\	.	8g\	8b-\	8dd\
=14	=14	=14	=14	=14
4E-\	1r	4g\	4b-\	4ee-\
4C/	.	4g\	4cc\	4ee-\
4.BB-/	.	4.d\	4.dd\	4.ff\
8C/	.	8e-\	8cc\	8ee-\
=15	=15	=15	=15	=15
4D\	1r	4f\	4b-\	4dd\
4E-\	.	4g\	4b-\	4cc\
2F\	.	2f\	2a/	2cc\
=16	=16	=16	=16	=16
2BB-/	1r	4f\	2b-\	1b-
.	.	2b-\	.	.
[2B-\	.	.	[2dd\	.
.	.	8a\	.	.
.	.	8g\	.	.
=17	=17	=17	=17	=17
4B-\]	1r	8f\	4dd\]	2.ff\
.	.	8e\	.	.
8A\	.	8f\	8cc\	.
8G\	.	8g\	8b-\	.
8F\	.	2a\	8a/	.
8E\	.	.	8g/	.
8F\	.	.	8a/	8ee\
8G\	.	.	8b-\	8dd\
=18	=18	=18	=18	=18
4A\	1r	2e\	4cc\	8cc\
.	.	.	.	8b-\
4A\	.	.	4a/	8cc\
.	.	.	.	8dd\
2G\	.	[2g\	4bn\	4.ee-\
.	.	.	[4cc\	.
.	.	.	.	8ff\
=19	=19	=19	=19	=19
2G\	1r	2g\]	4cc\]	2dd\
.	.	.	4bn\	.
8C/	.	2g\	2cc\	2cc\
8C/	.	.	.	.
8BB-/	.	.	.	.
8AA/	.	.	.	.
=20	=20	=20	=20	=20
4GG/	1r	1r	8r	8r
.	.	.	8b-\	8dd\
4GG/	.	.	8a/	8cc\
.	.	.	8g/	8b-\
[2D\	.	.	4f#/	4a/
.	.	.	4g/	4b-\
=21	=21	=21	=21	=21
2D\]	1r	1r	2f#/	2a/
2GG/	.	.	2g/	2g/
=22	=22	=22	=22	=22
1r	4r	4r	1r	4r
.	4d\	8d\	.	8f/
.	.	8e\	.	8g/
.	4.d\	2f\	.	2a/
.	8c\	.	.	.
=23	=23	=23	=23	=23
1r	4B-\	4r	1r	4r
.	4G/	8f\	.	8a/
.	.	8g\	.	8b-\
.	4.F/	[2a\	.	[2cc\
.	8G/	.	.	.
=24	=24	=24	=24	=24
1r	4A/	4a\]	1r	4cc\]
.	4B-\	8g\	.	8b-\
.	.	8f\	.	8a/
.	2c\	2e\	.	2g/
=25	=25	=25	=25	=25
1r	2F/	2f\	1r	1a
.	[2f\	[2a\	.	.
=26	=26	=26	=26	=26
1r	4f\]	2a\]	1r	1cc
.	8e\	.	.	.
.	8d\	.	.	.
.	8c\	8e\	.	.
.	8B-\	8e\	.	.
.	8c\	8e\	.	.
.	8d\	8f\	.	.
=27	=27	=27	=27	=27
1r	4e-\	2.g\	1r	8g/
.	.	.	.	8g/
.	4e-\	.	.	8g/
.	.	.	.	8g/
.	2d\	.	.	2a/
.	.	4f#\	.	.
=28	=28	=28	=28	=28
1r	8G/	2g\	1r	2g/
.	8G/	.	.	.
.	8F/	.	.	.
.	8E/	.	.	.
.	4D/	2f\	.	[2a/
.	4D/	.	.	.
=29	=29	=29	=29	=29
1r	1A	8c#\	1r	2a/]
.	.	8c#\	.	.
.	.	8c#\	.	.
.	.	8c#\	.	.
.	.	[2d\	.	8d/
.	.	.	.	8d/
.	.	.	.	8d/
.	.	.	.	8d/
=30	=30	=30	=30	=30
1r	1A	2d\]	1r	1e
.	.	2c#\	.	.
=31	=31	=31	=31	=31
2r	2.D/	4d\	1r	4d/
.	.	8d\	.	8f/
.	.	8e\	.	8g/
4r	.	2f\	.	2a/
8D\	8F/	.	.	.
8E\	8G/	.	.	.
=32	=32	=32	=32	=32
2.F\	2.A/	4r	1r	1r
.	.	8A/	.	.
.	.	8B-/	.	.
.	.	[2c\	.	.
8E\	8G/	.	.	.
8D\	8F/	.	.	.
=33	=33	=33	=33	=33
1C	4E/	4c\]	1r	1r
.	2F/	8B-/	.	.
.	.	8A/	.	.
.	.	2G/	.	.
.	4E/	.	.	.
=34	=34	=34	=34	=34
4F\	2F/	4A/	2r	2r
8G\	.	8B-\	.	.
8A\	.	8c\	.	.
[2B-\	2r	[2d\	4r	4r
.	.	.	8b-\	8dd\
.	.	.	8cc\	8ee\
=35	=35	=35	=35	=35
4B-\]	1r	4d\]	2.dd\	2.ff\
8A\	.	8c\	.	.
8G\	.	8B-\	.	.
[2F\	.	2f\	.	.
.	.	.	8cc\	8ee-\
.	.	.	8b-\	8dd\
=36	=36	=36	=36	=36
2F\]	1r	2f\	2a/	2cc\
2BB-/	.	[2f\	2b-\	2dd\
=37	=37	=37	=37	=37
[1B-	[1d	2f\]	1r	1r
.	.	8B-/	.	.
.	.	8B-/	.	.
.	.	8B-/	.	.
.	.	8A/	.	.
=38	=38	=38	=38	=38
2B-\]	2d\]	[1G	1r	1r
8E-\	8G/	.	.	.
8E-\	8G/	.	.	.
8E-\	8G/	.	.	.
8E-\	8G/	.	.	.
=39	=39	=39	=39	=39
2D\	1A	2G/]	1r	1r
2D\	.	2F#/	.	.
=40	=40	=40	=40	=40
[1G	[1B-	2G/	1r	1r
.	.	[2d\	.	.
=41	=41	=41	=41	=41
2G\]	2B-\]	2d\]	1b-	[1dd
8BB-/	[2d\	8G/	.	.
8BB-/	.	8G/	.	.
8BB-/	.	8G/	.	.
8BB-/	.	8G/	.	.
=42	=42	=42	=42	=42
[1AA	2d\]	[1A	8f/	2dd\]
.	.	.	8f/	.
.	.	.	8f/	.
.	.	.	8e/	.
.	8A/	.	[2d/	8f/
.	8A/	.	.	8f/
.	8A/	.	.	8f/
.	8D/	.	.	8f/
=43	=43	=43	=43	=43
1AA]	1E	1A]	2d/]	1e
.	.	.	2c#/	.
=44	=44	=44	=44	=44
2D\	2F#/	2A/	2d/	2d/
4r	4r	4r	4r	4r
4D\	4A/	4d\	4f#/	4a/
=45	=45	=45	=45	=45
4.D\	4.A/	4.d\	4.f#/	4.a/
8D\	8A/	8d\	8f#/	8a/
4D\	4A/	4d\	4f#/	4a/
4G\	4G/	4d\	4g/	4b-\
=46	=46	=46	=46	=46
4.F\	4.c\	4.f\	4.a/	4.cc\
8F\	8c\	8f\	8a/	8cc\
4B-\	4B-\	4f\	4b-\	4dd\
4E-\	4G/	4g\	4b-\	4ee-\
=47	=47	=47	=47	=47
2F\	2c\	2f\	2a/	2cc\
4BB-/	4d\	[2f\	2b-\	2b-\
8D\	8F/	.	.	.
8E\	8G/	.	.	.
=48	=48	=48	=48	=48
1F	2A/	4f\]	4r	4r
.	.	8a\	8f/	8a/
.	.	8g\	8g/	8b-\
.	8A/L	4f\	2a/	4cc\
.	8G/	.	.	.
.	8A/	[4f\	.	[4dd\
.	8F/J	.	.	.
=49	=49	=49	=49	=49
4C/	4G/	4f\]	4g/	4dd\]
4C/	4c\	4e\	4g/	4a/
2D\	2A/	2d\	2f#/	2a/
=50	=50	=50	=50	=50
2.D\	2.A/	1d	2.f#/	1a
4D\	4A/	.	4f#/	.
=51	=51	=51	=51	=51
1D	2A/	4r	[1f#	4r
.	.	4d\	.	4a/
.	[2D/	[2d\	.	[2a/
=52	=52	=52	=52	=52
1GG	2D/]	2d\]	2f#/]	2a/]
.	2G/	2B-\	2g/	2e/
=53	=53	=53	=53	=53
1D	4r	1A	1a	2f#/
.	4D/	.	.	.
.	[2d\	.	.	4r
.	.	.	.	4dd\
=54	=54	=54	=54	=54
4r	2d\]	4r	4r	[1dd
4G\	.	4G/	4bn\	.
2G\	[2G/	[2g\	[2bn\	.
=55	=55	=55	=55	=55
1C	2G/]	2g\]	2b\]	2dd\]
.	2c\	2e-\	2cc\	2a/
=56	=56	=56	=56	=56
[1G	1r	1d	4dd\	4bn\
.	.	.	4f#/	4a/
.	.	.	4g/	4b-\
.	.	.	4a/	4cc\
=57	=57	=57	=57	=57
1G_	4r	4r	1b-	1dd
.	4B-\	4d\	.	.
.	4c\	4e-\	.	.
.	4d\	4f\	.	.
=58	=58	=58	=58	=58
1G]	1e-	1g	1r	1r
=59	=59	=59	=59	=59
1r	4Bn\	4r	1r	1r
.	2c\	4e-\	.	.
.	.	2d\	.	.
.	4B\	.	.	.
=60	=60	=60	=60	=60
4r	2.c\	2.c\	2r	1r
4C/	.	.	.	.
[2C/	.	.	4r	.
.	4G/	4e\	4cc\	.
=61	=61	=61	=61	=61
2C/]	[1G	2e\	2cc\	1r
2BB-/	.	2d\	2g/	.
=62	=62	=62	=62	=62
[1AA	2G/]	[1e	4a/	4r
.	.	.	4a/	4cc\
.	2F/	.	[2a/	[2cc\
=63	=63	=63	=63	=63
1AA_	1E	1e]	2a/]	2cc\]
.	.	.	2bn\	2g/
=64	=64	=64	=64	=64
1AA_	1r	4r	[1cc#	2a/
.	.	4e\	.	.
.	.	4f#\	.	4r
.	.	4g\	.	4e/
=65	=65	=65	=65	=65
1AA]	4r	2a\	1cc#]	4f#/
.	4E/	.	.	4g/
.	4F#/	2r	.	[2a/
.	4G/	.	.	.
=66	=66	=66	=66	=66
1r	[1A	4r	4r	2a/]
.	.	4c#\	4e/	.
.	.	4d\	4f/	2r
.	.	4e\	4g/	.
=67	=67	=67	=67	=67
1r	2A/]	1f	1a	1r
.	2A/	.	.	.
=68	=68	=68	=68	=68
1r	1A	4c#\	4r	1r
.	.	2d\	4e/	.
.	.	.	2e/	.
.	.	4c#\	.	.
=69	=69	=69	=69	=69
1r	1D	[1d	4d/	4r
.	.	.	4f#/	4a/
.	.	.	4g/	4bn\
.	.	.	4a/	4cc\
=70	=70	=70	=70	=70
4r	4r	1d_	1b-	1dd
4D\	4F#/	.	.	.
4E\	4G/	.	.	.
4F#\	4A/	.	.	.
=71	=71	=71	=71	=71
1G	1B-	1d]	4r	4r
.	.	.	4a/	4f#/
.	.	.	4b-\	4g/
.	.	.	4cc\	4a/
=72	=72	=72	=72	=72
1GG	4r	4r	1dd	1b-
.	4D/	4F#/	.	.
.	4E/	4G/	.	.
.	4F#/	4A/	.	.
=73	=73	=73	=73	=73
1GG	4G/	4B-\	4r	4r
.	4D/	4A/	4f#/	4d/
.	2G/	2B-\	2g/	2e/
=74	=74	=74	=74	=74
1D;	1D;	1A;	1a;	1f#;
==	==	==	==	==
*-	*-	*-	*-	*-
!!!ENC: Craig Stuart Sapp
!!!END: 2004/12/10/
